packages/match-logos/mono/svg/smava.svg

<svg fill="none" height="33" viewBox="0 0 147 33" width="147" xmlns="http://www.w3.org/2000/svg" xmlns:xlink="http://www.w3.org/1999/xlink"><mask id="a" height="22" maskUnits="userSpaceOnUse" width="19" x="128" y="5"><path d="m128.911 5.52698h17.897v20.62102h-17.897z" fill="#fff"/></mask><mask id="b" height="32" maskUnits="userSpaceOnUse" width="30" x="0" y="1"><path d="m0 1.00049h29.3626v31.90501h-29.3626z" fill="#fff"/></mask><g clip-rule="evenodd" fill="#1f304c" fill-rule="evenodd"><path d="m55.8007 20.1636c0-3.642-2.834-5.108-5.334-6.069l-2.001-.755c-1.672-.628-2.75-1.004-2.75-2.59 0-1.04696.959-1.84196 2.875-1.84196 1.876 0 3.711.544 4.835 1.42296l2.042-3.09796c-1.911-1.428-4.459-1.931-7.002-1.931-3.917 0-6.959 2.261-6.959 5.69496 0 3.809 2.876 5.148 4.793 5.735l1.999.71c1.459.503 3.252 1.256 3.252 3.057s-1.834 2.053-3.292 2.053c-1.71 0-4.084-.963-5.793-2.052l-1.543 3.643c2.292 1.296 5.001 2.008 7.336 2.008 4.541 0 7.542-1.967 7.542-5.986z"/><path d="m81.7119 5.52734c-2.546 0-5.342 1.048-6.719 2.895-1.045-1.885-2.922-2.895-5.51-2.895-1 0-4.506.251-6.467 2.641v-2.226h-4.34v19.62296h4.34v-11.395c0-2.768 1.712-4.61296 4.507-4.61296 2.585 0 4.172 1.38396 4.172 3.80996v12.2h3.965v-11.397c0-2.768 1.712-4.61296 4.508-4.61296 2.584 0 4.173 1.38396 4.173 3.80996v12.2h4.34v-13.073c0-4.61896-2.712-6.96696-6.969-6.96696z"/><path d="m104.958 20.648c-1.638 1.085-3.556 1.668-5.52 1.676-2.215 0-3.637-1.176-3.637-2.984 0-2.392 3.22-3.484 6.146-3.484.585 0 2.259 0 3.011.167zm-3.68-15.12102c-2.3 0-5.101.337-7.861 1.765l1.632 3.52602c2.174-1.30302 3.554-1.63802 5.225-1.63802 3.053 0 4.684.92302 4.684 3.44402v.379c-1.245-.191-2.504-.29-3.764-.294-5.644 0-9.784 3.023-9.784 7.18 0 3.657 2.889 6.259 6.942 6.259 1.671 0 3.678-.503 5.56-1.596.251-.127.586-.335 1.046-.629v1.636h4.348v-13.647c0-4.62002-3.387-6.38502-8.028-6.38502z"/></g><g mask="url(#a)"><path clip-rule="evenodd" d="m142.461 20.648c-1.639 1.085-3.558 1.668-5.521 1.676-2.216 0-3.636-1.176-3.636-2.984 0-2.392 3.22-3.484 6.147-3.484.583 0 2.257 0 3.01.167zm-3.681-15.12102c-2.299 0-5.101.337-7.86 1.765l1.63 3.52602c2.174-1.30302 3.556-1.63802 5.225-1.63802 3.055 0 4.686.92302 4.686 3.44402v.379c-1.246-.191-2.504-.289-3.764-.294-5.646 0-9.786 3.023-9.786 7.18 0 3.657 2.889 6.259 6.942 6.259 1.671 0 3.68-.503 5.56-1.596.253-.127.586-.335 1.048-.629v1.636h4.348v-13.647c0-4.62002-3.387-6.38502-8.029-6.38502z" fill="#1f304c" fill-rule="evenodd"/></g><path clip-rule="evenodd" d="m124.526 5.92334h4.454l-6.788 19.63696h-4.484l-6.787-19.63696h4.454l4.575 13.24196z" fill="#1f304c" fill-rule="evenodd"/><g mask="url(#b)"><path clip-rule="evenodd" d="m14.6816 15.2505 14.681-8.55901v-5.691l-14.682 8.56-14.68096621-8.56v14.51901l14.68196621 8.559 9.548-5.568v3.137l-9.548 5.566-14.68196621-8.559v5.692l14.68096621 8.559 14.682-8.559v-14.51901l-14.681 8.56101-9.51497-5.538v-3.14601z" fill="#1f304c" fill-rule="evenodd"/></g></svg>

<svg width="147" height="33" viewBox="0 0 147 33" fill="none" xmlns="http://www.w3.org/2000/svg">
<path fill-rule="evenodd" clip-rule="evenodd" d="M55.8007 20.1636C55.8007 16.5216 52.9667 15.0556 50.4667 14.0946L48.4657 13.3396C46.7937 12.7116 45.7157 12.3356 45.7157 10.7496C45.7157 9.70264 46.6747 8.90764 48.5907 8.90764C50.4667 8.90764 52.3017 9.45164 53.4257 10.3306L55.4677 7.23264C53.5567 5.80464 51.0087 5.30164 48.4657 5.30164C44.5487 5.30164 41.5067 7.56264 41.5067 10.9966C41.5067 14.8056 44.3827 16.1446 46.2997 16.7316L48.2987 17.4416C49.7577 17.9446 51.5507 18.6976 51.5507 20.4986C51.5507 22.2996 49.7167 22.5516 48.2587 22.5516C46.5487 22.5516 44.1747 21.5886 42.4657 20.4996L40.9227 24.1426C43.2147 25.4386 45.9237 26.1506 48.2587 26.1506C52.7997 26.1506 55.8007 24.1836 55.8007 20.1646V20.1636Z" fill="#1F304C"/>
<path fill-rule="evenodd" clip-rule="evenodd" d="M81.7119 5.52734C79.1659 5.52734 76.3699 6.57534 74.9929 8.42234C73.9479 6.53734 72.0709 5.52734 69.4829 5.52734C68.4829 5.52734 64.9769 5.77834 63.0159 8.16834V5.94234H58.6759V25.5653H63.0159V14.1703C63.0159 11.4023 64.7279 9.55734 67.5229 9.55734C70.1079 9.55734 71.6949 10.9413 71.6949 13.3673V25.5673H75.6599V14.1703C75.6599 11.4023 77.3719 9.55734 80.1679 9.55734C82.7519 9.55734 84.3409 10.9413 84.3409 13.3673V25.5673H88.6809V12.4943C88.6809 7.87534 85.9689 5.52734 81.7119 5.52734Z" fill="#1F304C"/>
<path fill-rule="evenodd" clip-rule="evenodd" d="M104.958 20.648C103.32 21.733 101.402 22.316 99.438 22.324C97.223 22.324 95.801 21.148 95.801 19.34C95.801 16.948 99.021 15.856 101.947 15.856C102.532 15.856 104.206 15.856 104.958 16.023V20.648ZM101.278 5.52698C98.978 5.52698 96.177 5.86398 93.417 7.29198L95.049 10.818C97.223 9.51498 98.603 9.17998 100.274 9.17998C103.327 9.17998 104.958 10.103 104.958 12.624V13.003C103.713 12.812 102.454 12.713 101.194 12.709C95.55 12.709 91.41 15.732 91.41 19.889C91.41 23.546 94.299 26.148 98.352 26.148C100.023 26.148 102.03 25.645 103.912 24.552C104.163 24.425 104.498 24.217 104.958 23.923V25.559H109.306V11.912C109.306 7.29198 105.919 5.52698 101.278 5.52698Z" fill="#1F304C"/>
<mask id="mask0" mask-type="alpha" maskUnits="userSpaceOnUse" x="128" y="5" width="19" height="22">
<path d="M128.911 5.52698H146.808V26.148H128.911V5.52698Z" fill="white"/>
</mask>
<g mask="url(#mask0)">
<path fill-rule="evenodd" clip-rule="evenodd" d="M142.461 20.648C140.822 21.733 138.903 22.316 136.94 22.324C134.724 22.324 133.304 21.148 133.304 19.34C133.304 16.948 136.524 15.856 139.451 15.856C140.034 15.856 141.708 15.856 142.461 16.023V20.648ZM138.78 5.52698C136.481 5.52698 133.679 5.86398 130.92 7.29198L132.55 10.818C134.724 9.51498 136.106 9.17998 137.775 9.17998C140.83 9.17998 142.461 10.103 142.461 12.624V13.003C141.215 12.812 139.957 12.714 138.697 12.709C133.051 12.709 128.911 15.732 128.911 19.889C128.911 23.546 131.8 26.148 135.853 26.148C137.524 26.148 139.533 25.645 141.413 24.552C141.666 24.425 141.999 24.217 142.461 23.923V25.559H146.809V11.912C146.809 7.29198 143.422 5.52698 138.78 5.52698Z" fill="#1F304C"/>
</g>
<path fill-rule="evenodd" clip-rule="evenodd" d="M124.526 5.92334H128.98L122.192 25.5603H117.708L110.921 5.92334H115.375L119.95 19.1653L124.526 5.92334Z" fill="#1F304C"/>
<mask id="mask1" mask-type="alpha" maskUnits="userSpaceOnUse" x="0" y="1" width="30" height="32">
<path d="M0 1.00049H29.3626V32.9055H0V1.00049Z" fill="white"/>
</mask>
<g mask="url(#mask1)">
<path fill-rule="evenodd" clip-rule="evenodd" d="M14.6816 15.2505L29.3626 6.69149V1.00049L14.6806 9.56049L-0.000366211 1.00049V15.5195L14.6816 24.0785L24.2296 18.5105V21.6475L14.6816 27.2135L-0.000366211 18.6545V24.3465L14.6806 32.9055L29.3626 24.3465V9.82749L14.6816 18.3885L5.16663 12.8505V9.70449L14.6816 15.2505Z" fill="#1F304C"/>
</g>
</svg>
